X: 2
T: Elk's Festival
T:   
M: 4/4
L: 1/8
R: hornpipe
K: D Major
|: F>G |\ 
A>F (3ABd f>ed>c | B>^AB>e g>fe>d | c>Ac>e b>a^g>a | b>a (3fed A2 (3EFG |
A2 (3FAd f>ed>c | B2 (3GBe g2 (3bag | f>a (3fed B>g (3edc | d>A (3FGA D2 :|
|: f>g |\ 
a>^gb>a f>dA>d | g>fa>g e>cA>c | f>dg>e a>fb>g | e>c (3dcB (3ABA (3efg |
(3aaa f>d A>dF>d | (3ggg e>c A>cE>c | f>d (3AGF E>g (3edc | d2 A2 D2 :|
